icons/spy-fill.svg

<svg viewBox="0 0 24 24" fill="currentColor" xmlns="http://www.w3.org/2000/svg"><path d="M17 13C19.2091 13 21 14.7909 21 17C21 19.2091 19.2091 21 17 21C14.8578 21 13 19.21 13 17H11C11 19.2091 9.20914 21 7 21C4.79086 21 3 19.2091 3 17C3 14.7909 4.79086 13 7 13C8.48052 13 9.77317 13.8043 10.4648 14.9999H13.5352C14.2268 13.8043 15.5195 13 17 13ZM2 12V10H4V7C4 4.79086 5.79086 3 8 3H16C18.2091 3 20 4.79086 20 7V10H22V12H2Z"/></svg>

<svg xmlns="http://www.w3.org/2000/svg" viewBox="0 0 24 24">
    <g>
        <path fill="none" d="M0 0h24v24H0z"/>
        <path d="M17 13a4 4 0 1 1 0 8c-2.142 0-4-1.79-4-4h-2a4 4 0 1 1-.535-2h3.07A3.998 3.998 0 0 1 17 13zM2 12v-2h2V7a4 4 0 0 1 4-4h8a4 4 0 0 1 4 4v3h2v2H2z"/>
    </g>
</svg>
